X:100
T:Her Golden Hair Hanging Down Her Back
R:hornpipe
C:Martin "Junior" Crehan (1908-1998)
H:Also played in Bdor, #114
Z:id:hn-hornpipe-100
M:C|
K:Ador
cd|edce d2cA|GE~E2 G2cd|edce d2cd|eaag a2g=f|
edce d2cA|GE~E2 GAcd|edcA dcAG|A2AG AB:|
|:cd|egg^f gede|cAAB c3d|eaag a2g=f|edce d2cd|
egg^f gede|cAAB cBcd|edcA dcAG|A2AG AB:|
<end>
<start>
